apps/web/public/images/new-landing/logos/zendesk.svg

<svg fill="none" height="26" viewBox="0 0 112 26" width="112" xmlns="http://www.w3.org/2000/svg"><path d="m87.2713 18.5545c.998 0 1.8851-.3545 2.6614-1.0636l1.3307 1.5364c-.8872.9454-2.107 1.6545-3.8812 1.6545-3.2159 0-5.2119-2.2454-5.2119-5.3182 0-2.8363 2.1069-5.3181 4.7683-5.3181h.1109c3.2159 0 4.9901 2.6 4.7683 6.1454h-7.5406c.2218 1.4182 1.2198 2.3636 2.9941 2.3636zm2.2178-4.1363c-.2218-1.4182-.998-2.3637-2.5505-2.3637-1.4416 0-2.4396.8273-2.6614 2.3637zm-51.3426 4.0182 5.7664-6.2637h-5.6555v-2.0091h8.3169v2.0091l-5.7664 6.2637h5.7664v2.0091h-8.5387zm14.9703.1181c.9981 0 1.8852-.3545 2.6614-1.0636l1.3307 1.5364c-.8871.9454-2.1069 1.6545-3.8812 1.6545-3.2158 0-5.2119-2.2454-5.2119-5.3182 0-2.8363 2.107-5.3181 4.7684-5.3181h.1109c3.2158 0 4.9901 2.6 4.7683 6.1454h-7.5406c.2218 1.4182 1.2198 2.3636 2.994 2.3636zm2.2179-4.1363c-.2218-1.4182-.9981-2.3637-2.5505-2.3637-1.4416 0-2.4396.8273-2.6614 2.3637zm14.7485.8273c0-3.3091 2.3287-5.31823 4.7683-5.31823 1.2198 0 2.4396.59093 3.2158 1.53633v-6.02724h1.9961v14.89094h-1.9961v-1.4182c-.7762 1.0636-1.996 1.6545-3.2158 1.6545-2.4396 0-4.7683-2.0091-4.7683-5.3181zm8.095 0c-.1109-2.8364-3.3267-4.2546-5.2119-2.1273-1.8851 2.1273-.5544 5.4363 2.2179 5.4363 1.6633 0 2.994-1.4181 2.994-3.309zm14.9703 2.9545 1.8852-1.0636c.4435.9454 1.4416 1.5363 2.4396 1.5363 1.1089 0 1.7742-.5909 1.7742-1.3 0-.8272-1.1089-.9454-2.3287-1.3-1.6634-.3545-3.3267-.9454-3.3267-3.0727 0-1.6545 1.4416-3.07273 3.6594-3.07273 1.7742 0 3.1045.70913 3.8815 2.00913l-1.7746 1.0636c-.4435-.7091-1.3307-1.1818-2.1069-1.1818-1.1089 0-1.6634.5909-1.6634 1.1818 0 .7091.8872.9455 2.2178 1.3 1.5525.3545 3.3271.9455 3.3271 3.0727 0 1.4182-1.109 3.3091-3.8815 3.3091-1.9961-.1182-3.3267-.9454-4.103-2.4818zm13.5285-2.3636-1.552 1.8909v2.6h-1.996v-14.89094h1.996v9.69094l4.325-5.0818h2.439l-3.77 4.3727 3.881 5.7909h-2.329zm-42.8037-5.90913c-2.4396 0-4.4357 1.65453-4.4357 4.49093v5.9091h2.107v-5.6728c0-1.6545.8871-2.7181 2.4396-2.7181 1.5524 0 2.3287.9454 2.3287 2.7181v5.6728h2.1069v-5.9091c-.1109-2.8364-2.1069-4.49093-4.5465-4.49093zm-49.0139-3.07272v19.14545h-14.8594zm0-6.85455c0 4.37273-3.3267 7.91818-7.4297 7.91818-4.10297 0-7.4297-3.54545-7.4297-7.91818zm2.4396 26c0-4.3727 3.3267-7.9182 7.4297-7.9182s7.4297 3.5455 7.4297 7.9182zm0-6.8545v-19.1455h14.8594z" fill="#606060"/></svg>

<svg width="112" height="26" viewBox="0 0 112 26" fill="none" xmlns="http://www.w3.org/2000/svg">
<path d="M87.2713 18.5545C88.2693 18.5545 89.1564 18.2 89.9327 17.4909L91.2634 19.0273C90.3762 19.9727 89.1564 20.6818 87.3822 20.6818C84.1663 20.6818 82.1703 18.4364 82.1703 15.3636C82.1703 12.5273 84.2772 10.0455 86.9386 10.0455H87.0495C90.2654 10.0455 92.0396 12.6455 91.8178 16.1909H84.2772C84.499 17.6091 85.497 18.5545 87.2713 18.5545ZM89.4891 14.4182C89.2673 13 88.4911 12.0545 86.9386 12.0545C85.497 12.0545 84.499 12.8818 84.2772 14.4182H89.4891ZM38.1465 18.4364L43.9129 12.1727H38.2574V10.1636H46.5743V12.1727L40.8079 18.4364H46.5743V20.4455H38.0356L38.1465 18.4364ZM53.1168 18.5545C54.1149 18.5545 55.002 18.2 55.7782 17.4909L57.1089 19.0273C56.2218 19.9727 55.002 20.6818 53.2277 20.6818C50.0119 20.6818 48.0158 18.4364 48.0158 15.3636C48.0158 12.5273 50.1228 10.0455 52.7842 10.0455H52.8951C56.1109 10.0455 57.8852 12.6455 57.6634 16.1909H50.1228C50.3446 17.6091 51.3426 18.5545 53.1168 18.5545ZM55.3347 14.4182C55.1129 13 54.3366 12.0545 52.7842 12.0545C51.3426 12.0545 50.3446 12.8818 50.1228 14.4182H55.3347ZM70.0832 15.2455C70.0832 11.9364 72.4119 9.92727 74.8515 9.92727C76.0713 9.92727 77.2911 10.5182 78.0673 11.4636V5.43636H80.0634V20.3273H78.0673V18.9091C77.2911 19.9727 76.0713 20.5636 74.8515 20.5636C72.4119 20.5636 70.0832 18.5545 70.0832 15.2455ZM78.1782 15.2455C78.0673 12.4091 74.8515 10.9909 72.9663 13.1182C71.0812 15.2455 72.4119 18.5545 75.1842 18.5545C76.8475 18.5545 78.1782 17.1364 78.1782 15.2455ZM93.1485 18.2L95.0337 17.1364C95.4772 18.0818 96.4753 18.6727 97.4733 18.6727C98.5822 18.6727 99.2475 18.0818 99.2475 17.3727C99.2475 16.5455 98.1386 16.4273 96.9188 16.0727C95.2554 15.7182 93.5921 15.1273 93.5921 13C93.5921 11.3455 95.0337 9.92727 97.2515 9.92727C99.0257 9.92727 100.356 10.6364 101.133 11.9364L99.3584 13C98.9149 12.2909 98.0277 11.8182 97.2515 11.8182C96.1426 11.8182 95.5881 12.4091 95.5881 13C95.5881 13.7091 96.4753 13.9455 97.8059 14.3C99.3584 14.6545 101.133 15.2455 101.133 17.3727C101.133 18.7909 100.024 20.6818 97.2515 20.6818C95.2554 20.5636 93.9248 19.7364 93.1485 18.2ZM106.677 15.8364L105.125 17.7273V20.3273H103.129V5.43636H105.125V15.1273L109.45 10.0455H111.889L108.119 14.4182L112 20.2091H109.671L106.677 15.8364ZM63.8733 9.92727C61.4337 9.92727 59.4376 11.5818 59.4376 14.4182V20.3273H61.5446V14.6545C61.5446 13 62.4317 11.9364 63.9842 11.9364C65.5366 11.9364 66.3129 12.8818 66.3129 14.6545V20.3273H68.4198V14.4182C68.3089 11.5818 66.3129 9.92727 63.8733 9.92727ZM14.8594 6.85455V26H0L14.8594 6.85455ZM14.8594 0C14.8594 4.37273 11.5327 7.91818 7.4297 7.91818C3.32673 7.91818 0 4.37273 0 0H14.8594ZM17.299 26C17.299 21.6273 20.6257 18.0818 24.7287 18.0818C28.8317 18.0818 32.1584 21.6273 32.1584 26H17.299ZM17.299 19.1455V0H32.1584L17.299 19.1455Z" fill="#606060" style="fill:#606060;fill-opacity:1;"/>
</svg>
